X:1
T:At the Name of Jesus (Werdebaugh)
T:At the Name of Jesus (Werdebaugh)
T:Scott Werdebaugh, 2007
T:Scott Werdebaugh, 2007
T:© 2007 Scott Werdebaugh &amp; New Heart Music - May be freely copied and used for Christian worship or devotions with no alterations. All other rights reserved.
T:© 2007 Scott Werdebaugh &amp; New Heart Music - May be freely copied and used for Christian worship or devotions with no alterations. All other rights reserved.
C:Scott Werdebaugh, 2007
Z:© 2007 Scott Werdebaugh & New Heart Music - May be freely copied and used for
Z:Christian worship or devotions with no alterations. All other rights reserved.
%%score ( 1 2 ) ( 3 4 )
L:1/8
Q:1/4=142
M:4/4
K:C
V:1 treble 
V:2 treble 
V:3 bass 
V:4 bass 
V:1
"^Boldly" [Ec]2 [EG]2 [FA]3 [EG] | ([DG]3 [B,F]) [CE]4 | [FA]2 [EG]2 [DG]3 [DF] | [CE]6 [CE]2 | %4
w: At the name of|Je- * sus|ev’- ry knee should|bow, and|
 [CF]2 [CF]2 [EG]2 [FA]2 | [GB]4 [Ec]4 | [Gd]2 [GB]2 [Gc]3 [^FA] | [DG]8 | C3 [B,D] [CE]2 C2 | %9
w: ev’- ry tongue con-|fess that|Je- sus Christ is|Lord.|God ex- alt- ed|
 [FA]3 [DG] [EG]4 | [FA]3 [FA] [DB]2 [FA]2 | [EG]6 [EG]2 | [FA]2 [FA]2 [DB]2 [GB]2 | %13
w: Je- sus Christ|to the high- est|place, And|gave to Him the|
 [Ec]3 [Gd] [Ge]3 [Ec] | [DB]3 [FB] [Ec]2 [DA]2 | [DG]8 | [Ec]2 [EG]2 [FA]3 [EG] | %17
w: high- est name that|is a- bove all|names.|At the name of|
 ([DG]3 [B,F]) [CE]4 | [FA]2 [EG]2 [DG]3 [B,F] | [CE]6 [CE]2 | [CF]2 [CF]2 [EG]2 [FA]2 | %21
w: Je- * sus|ev’- ry knee should|bow, and|ev’- ry tongue con-|
 [GB]4 [Ec]4 | [Gd]2 [GB]2 [Gc]3 [^FA] | [DG]8 | [CE]3 [CF] [EG]4 | [FA]3 [DG] [EG]4 | %26
w: fess that|Je- sus Christ is|Lord.|He is Lord,|He is Lord|
 [FA]3 [FB] [Ec]2 [Gd]2 |"^rit." (e2 c2) [ce]3 [Gc] |[Q:1/4=124] [Bd]4 !fermata![Gc]4 |] %29
w: to the glo- ry|of * God the|Fath- er.|
V:2
 x8 | x8 | x8 | x8 | x8 | x8 | x8 | x8 | C3 C2 x3 | x8 | x8 | x8 | x8 | x8 | x8 | x8 | x8 | x8 | %18
 x8 | x8 | x8 | x8 | x8 | x8 | x8 | x8 | x8 | G4 x4 | x8 |] %29
V:3
 [C,G,]2 [C,E,]2 [C,F,]3 [C,E,] | ([G,B,]3 [G,,G,]) [C,G,]4 | [C,F,]2 [C,G,]2 [B,,G,]3 [G,,G,] | %3
 [C,G,]6 [C,G,]2 | [F,A,]2 [F,A,]2 [G,C]2 [A,C]2 | [G,D]4 [G,C]4 | [G,B,]2 [G,D]2 [C,E]3 [D,D] | %7
 B,8 | [C,E,]3 [G,,G,] [C,G,]2 [C,E,]2 | [C,F,]3 [B,,G,] [C,G,]4 | %10
 [C,F,]3 [C,F,] [G,,G,]2 [C,F,]2 | [C,G,]6 [C,G,]2 | [C,F,]2 [C,F,]2 [G,,G,]2 [D,G,]2 | %13
 [C,G,]3 [G,,G,] [C,G,]3 [C,G,] | [G,,G,]3 [D,G,] [C,G,]2 [D,^F,]2 | B,8 | %16
 [C,G,]2 [C,E,]2 [C,F,]3 [C,E,] | ([G,B,]3 [D,G,]) [C,G,]4 | [C,F,]2 [C,G,]2 [B,,G,]3 [D,G,] | %19
 [C,G,]6 [C,G,]2 | [F,A,]2 [F,A,]2 [G,C]2 [A,C]2 | [G,D]4 [G,C]4 | [G,B,]2 [G,D]2 [C,E]3 [D,D] | %23
 B,8 | [C,G,]3 [C,A,] [C,C]4 | [F,C]3 [G,B,] [G,C]4 | [F,C]3 G, [C,G,]2 [G,B,]2 | %27
 (G,2 E,2) [C,G,]3 [C,E,] | (G,2 F,2) !fermata![C,E,]4 |] %29
V:4
 x8 | x8 | x8 | x8 | x8 | x8 | x8 | (G,4 =F,4) | x8 | x8 | x8 | x8 | x8 | x8 | x8 | (G,4 =F,4) | %16
 x8 | x8 | x8 | x8 | x8 | x8 | x8 | (G,4 =F,4) | x8 | x8 | x3 G, x4 | C,4 x4 | G,,4 x4 |] %29

